public/images/success.svg

<svg width="24" height="24" viewBox="0 0 24 24" fill="none" xmlns="http://www.w3.org/2000/svg">
<mask id="mask0_193_705" style="mask-type:alpha" maskUnits="userSpaceOnUse" x="0" y="0" width="24" height="24">
<rect width="24" height="24" fill="#D9D9D9"/>
</mask>
<g mask="url(#mask0_193_705)">
<path d="M3 6C3 4.89543 3.89543 4 5 4H7L10.971 1.6174C11.6044 1.23738 12.3956 1.23738 13.029 1.61739L17 4H19C20.1046 4 21 4.89543 21 6V13.4075C21 15.6926 20.0228 17.8686 18.3149 19.3867L15.9862 21.4567C13.7129 23.4775 10.2871 23.4775 8.01382 21.4567L5.68509 19.3867C3.97718 17.8686 3 15.6926 3 13.4075V6Z" fill="#11B466" stroke="white" stroke-width="2"/>
<path d="M8 10.6667L11.2727 14L17 9" stroke="white" stroke-width="2" stroke-linecap="round" stroke-linejoin="round"/>
</g>
</svg>

<svg xmlns="http://www.w3.org/2000/svg" width="24" height="24" fill="none"><mask id="a" width="24" height="24" x="0" y="0" maskUnits="userSpaceOnUse" style="mask-type:alpha"><path fill="#D9D9D9" d="M0 0h24v24H0z"/></mask><g stroke="#fff" stroke-width="2" mask="url(#a)"><path fill="#11B466" d="M3 6a2 2 0 0 1 2-2h2l3.971-2.383a2 2 0 0 1 2.058 0L17 4h2a2 2 0 0 1 2 2v7.408a8 8 0 0 1-2.685 5.979l-2.329 2.07a6 6 0 0 1-7.972 0l-2.329-2.07A8 8 0 0 1 3 13.407V6Z"/><path stroke-linecap="round" stroke-linejoin="round" d="M8 10.667 11.273 14 17 9"/></g></svg>
